X:490
T:Ryan's Polka
S:Sessions etc
Z:Nigel Gatherer
M:2/4
L:1/8
R:polka
K:D
dd B/c/d/B/ | AF AF    | dd B/c/d/B/ | AF    ED  |
dd B/c/d/B/ | AF Ad/e/ | fd ec       | d2    d2 :|
fd de/f/    | gf ed/e/ | fd Ad       | fd/f/ a>g |
fd de/f/    | gf ed/e/ | fd ec       | d2    d2 :|
<end>
<start>
